remix/Finance/24-hours-fill.svg

<svg viewBox="0 0 24 24" fill="currentColor" xmlns="http://www.w3.org/2000/svg"><path d="M12.0049 13.0028C13.6617 13.0028 15.0049 14.346 15.0049 16.0028C15.0049 16.8519 14.6521 17.6187 14.0851 18.1645L12.175 20.0024L15.0049 20.0028V22.0028H9.00488L9.00398 20.2784L12.6983 16.7234C12.8874 16.5411 13.0049 16.2857 13.0049 16.0028C13.0049 15.4505 12.5572 15.0028 12.0049 15.0028C11.4526 15.0028 11.0049 15.4505 11.0049 16.0028H9.00488C9.00488 14.346 10.348 13.0028 12.0049 13.0028ZM18.0049 13.0028V17.0028H20.0049V13.0028H22.0049V22.0028H20.0049V19.0028H16.0049V13.0028H18.0049ZM4.00488 12.0028C4.00488 14.5294 5.17612 16.7824 7.00527 18.2485L7.0049 20.665C4.01588 18.9359 2.00488 15.7042 2.00488 12.0028H4.00488ZM12.0049 2.00281C17.1902 2.00281 21.4537 5.94943 21.9555 11.0027L19.943 11.0029C19.4509 7.05652 16.0845 4.00281 12.0049 4.00281C9.54102 4.00281 7.33731 5.11664 5.8698 6.86824L8.00488 9.00281H2.00488V3.00281L4.45144 5.44929C6.28491 3.3379 8.98898 2.00281 12.0049 2.00281Z"/></svg>

<svg viewBox="0 0 24 24" xmlns="http://www.w3.org/2000/svg"><path fill="none" d="M0 0h24v24H0Z"/><path d="M12 13c1.657 0 3 1.343 3 3 0 .85-.36 1.61-.92 2.16l-1.91 1.83H15v2H9v-1.73l3.69-3.56c.19-.19.3-.44.3-.73 0-.56-.45-1-1-1 -.56 0-1 .44-1 1h-2c0-1.657 1.343-3 3-3Zm6 0v4h2v-4h2v9h-2v-3h-4v-6h2ZM4 12c0 2.52 1.17 4.78 3 6.24v2.41c-2.989-1.73-5-4.96-5-8.67h2Zm8-10c5.18 0 9.44 3.947 9.95 9h-2.02c-.5-3.95-3.86-7-7.94-7C9.52 4 7.32 5.11 5.85 6.86l2.13 2.13h-6v-6L4.42 5.43C6.25 3.32 8.96 1.98 11.98 1.98Z"/></svg>
